src/pages/elements/images/typekit.svg

<?xml version="1.0" encoding="UTF-8"?><svg width="32px" height="32px" viewBox="0 0 32 32" version="1.1" xmlns="http://www.w3.org/2000/svg" xmlns:xlink="http://www.w3.org/1999/xlink"><!--Generator: Sketch 50.2 (55047) - http://www.bohemiancoding.com/sketch--><title>Artboard Copy 3</title><desc>Created with Sketch.</desc><defs/><g id="typekit_svg__Artboard-Copy-3" stroke="none" stroke-width="1" fill="none" fill-rule="evenodd"><g id="typekit_svg__typekit-logo" fill-rule="nonzero"><polygon id="typekit_svg__Shape" fill="#152600" points="1 1 31 1 31 30 1 30"/><path d="M0,0 L0,31 L32,31 L32,0 L0,0 Z M1.64102564,1.63157895 L30.3589744,1.63157895 L30.3589744,29.3684211 L1.64102564,29.3684211 L1.64102564,1.63157895 Z" id="typekit_svg__Shape" fill="#87EC00"/><path d="M10.470486,9.99567962 L7.14262271,9.99567962 C7.06555417,9.9915648 7.00395992,9.92756125 7,9.84747813 L7.21393407,8.15139446 C7.21789399,8.07131133 7.27948824,8.00730779 7.35655678,8.00319297 L15.5018984,8.00319297 C15.54186,7.99356657 15.5837741,8.00603399 15.6127806,8.03617508 C15.641787,8.06631617 15.6537851,8.10986973 15.6445211,8.15139446 L15.7871438,9.84747813 C15.7964079,9.88900286 15.7844098,9.93255641 15.7554033,9.96269751 C15.7263968,9.9928386 15.6844827,10.005306 15.6445211,9.99567962 L12.6019032,9.99567962 L12.6019032,21.8517985 C12.5979433,21.9318816 12.5363491,21.9958852 12.4592805,22 L10.6844201,22 C10.6073516,21.9958852 10.5457573,21.9318816 10.5417974,21.8517985 L10.5417974,9.99567962 L10.470486,9.99567962 Z M19.3210177,16.3271764 L22.3081712,12.1199009 C22.3422287,12.0442217 22.4107938,11.9915609 22.4904114,11.9799328 L24.4792059,11.9799328 C24.6218286,11.9799328 24.6218286,12.0540336 24.5505172,12.1281343 C24.0513377,12.795041 21.927844,15.5203017 21.2147304,16.4012772 L21.2147304,16.5494787 L24.9704619,21.7776978 C25.0417732,21.8517985 24.9704619,21.9258993 24.8991505,21.9258993 L22.664728,21.9258993 C22.5863577,21.9100535 22.5208776,21.8543832 22.4904114,21.7776978 C21.8486091,20.8967223 20.2242949,18.4843314 19.3685586,17.2822527 L19.3685586,21.7776978 C19.3778227,21.8192225 19.3658246,21.8627761 19.3368181,21.8929171 C19.3078116,21.9230582 19.2658975,21.9355257 19.2259359,21.9258993 L17.3480702,21.9258993 C17.3081086,21.9355257 17.2661945,21.9230582 17.237188,21.8929171 C17.2081816,21.8627761 17.1961835,21.8192225 17.2054475,21.7776978 L17.2054475,8.15139446 C17.1961835,8.10986973 17.2081816,8.06631617 17.237188,8.03617508 C17.2661945,8.00603399 17.3081086,7.99356657 17.3480702,8.00319297 L19.194242,8.00319297 C19.2713105,8.00730779 19.3329048,8.07131133 19.3368647,8.15139446 L19.3368647,16.3271764 L19.3210177,16.3271764 Z" id="typekit_svg__Shape" fill="#87EC00"/></g></g></svg>

<svg xmlns="http://www.w3.org/2000/svg" viewBox="0 0 32 32"><g fill="none"><path fill="#152600" d="M1 1h30v29H1z"/><path d="M0 0v31h32V0H0zm1.641 1.632h28.718v27.736H1.641V1.632z" fill="#87EC00"/><path d="M10.47 9.996H7.143A.154.154 0 017 9.847l.214-1.696a.154.154 0 01.143-.148h8.145c.04-.01.082.003.11.033.03.03.042.074.033.115l.142 1.696a.127.127 0 01-.032.116.116.116 0 01-.11.033h-3.043v11.856a.154.154 0 01-.143.148h-1.775a.154.154 0 01-.142-.148V9.996h-.072zm8.851 6.331l2.987-4.207a.239.239 0 01.182-.14h1.99c.142 0 .142.074.07.148-.499.667-2.622 3.392-3.335 4.273v.148l3.755 5.229c.072.074 0 .148-.07.148h-2.235a.24.24 0 01-.175-.148c-.641-.881-2.266-3.294-3.121-4.496v4.496a.127.127 0 01-.032.115.116.116 0 01-.111.033h-1.878a.116.116 0 01-.11-.033.127.127 0 01-.033-.115V8.15a.127.127 0 01.032-.115.116.116 0 01.111-.033h1.846a.154.154 0 01.143.148v8.176h-.016z" fill="#87EC00"/></g></svg>
